Numix-GalliumOS/32/actions/gtk-undelete.svg

<?xml version="1.0" encoding="UTF-8" standalone="no"?>
<svg
   xmlns:dc="http://purl.org/dc/elements/1.1/"
   xmlns:cc="http://creativecommons.org/ns#"
   xmlns:rdf="http://www.w3.org/1999/02/22-rdf-syntax-ns#"
   xmlns:svg="http://www.w3.org/2000/svg"
   xmlns="http://www.w3.org/2000/svg"
   xmlns:sodipodi="http://sodipodi.sourceforge.net/DTD/sodipodi-0.dtd"
   xmlns:inkscape="http://www.inkscape.org/namespaces/inkscape"
   width="32"
   height="32"
   viewBox="0 0 32 32"
   id="svg2"
   version="1.1"
   inkscape:version="0.91 r"
   sodipodi:docname="gtk-undelete.svg">
  <metadata
     id="metadata20">
    <rdf:RDF>
      <cc:Work
         rdf:about="">
        <dc:format>image/svg+xml</dc:format>
        <dc:type
           rdf:resource="http://purl.org/dc/dcmitype/StillImage" />
        <dc:title></dc:title>
      </cc:Work>
    </rdf:RDF>
  </metadata>
  <defs
     id="defs18" />
  <sodipodi:namedview
     pagecolor="#ffffff"
     bordercolor="#666666"
     borderopacity="1"
     objecttolerance="10"
     gridtolerance="10"
     guidetolerance="10"
     inkscape:pageopacity="0"
     inkscape:pageshadow="2"
     inkscape:window-width="1366"
     inkscape:window-height="747"
     id="namedview16"
     showgrid="false"
     inkscape:zoom="14.75"
     inkscape:cx="24.621684"
     inkscape:cy="2.4389659"
     inkscape:window-x="0"
     inkscape:window-y="21"
     inkscape:window-maximized="1"
     inkscape:current-layer="svg2" />
  <path
     style="fill:#dc322f"
     d="M 28 10 L 28 28.855469 C 28 32 28 32 24.570312 32 L 7.429688 32 C 4 32 4 32 4 28.855469 L 4 10 C 10.855469 10 22.855469 10 28 10 Z "
     id="path4" />
  <g
     style="fill-opacity:.667;fill:#fff"
     id="g6">
    <path
       d="M 6 14 L 6 28 L 10 28 L 10 14 Z "
       id="path8" />
    <path
       d="M 14 14 L 14 28 L 18 28 L 18 14 Z "
       id="path10" />
    <path
       d="M 22 14 L 22 28 L 26 28 L 26 14 Z "
       id="path12" />
  </g>
  <path
     style="fill:#dc322f"
     d="M 4 8 L 28 8 L 28 4 L 22 4 L 22 0 L 10 0 L 10 4 L 4 4 Z "
     id="path14" />
  <path
     id="path4150"
     d="m 24.400471,31.949232 c 0.912919,-0.382688 1.71057,-0.82301 2.386038,-1.318659 6.653236,-5.223922 2.116309,-13.013697 -5.781816,-13.013697 l 0,-4.502345 L 12,19.869202 l 9.004693,7.879683 0,-4.502345 c 6.773115,1.136537 6.796169,2.160111 3.407305,7.868155 0,0 -1.12501,1.136537 0,0.834537 z"
     style="fill:#859900;fill-opacity:1"
     inkscape:connector-curvature="0" />
</svg>

<svg xmlns="http://www.w3.org/2000/svg" viewBox="0 0 32 32">
 <path d="m 28 10 l 0 18.855 c 0 3.145 0 3.145 -3.43 3.145 l -17.14 0 c -3.43 0 -3.43 0 -3.43 -3.145 l 0 -18.855 c 6.855 0 18.855 0 24 0 Z" style="fill:#dc322f"/>
 <g style="fill:#fff;fill-opacity:0.667">
  <path d="m 6 14 l 0 14 l 4 0 l 0 -14 Z"/>
  <path d="m 14 14 l 0 14 l 4 0 l 0 -14 Z"/>
  <path d="m 22 14 l 0 14 l 4 0 l 0 -14 Z"/>
 </g>
 <path d="m 4 8 l 24 0 l 0 -4 l -6 0 l 0 -4 l -12 0 l 0 4 l -6 0 Z" style="fill:#dc322f"/>
 <path d="m 24.4 31.949 c 0.913 -0.383 1.711 -0.823 2.386 -1.319 6.653 -5.224 2.116 -13.01 -5.782 -13.01 l 0 -4.502 l -9 6.755 l 9 7.88 0 -4.502 c 6.773 1.137 6.796 2.16 3.407 7.868 0 0 -1.125 1.137 0 0.835 z" style="fill:#859900;fill-opacity:1"/>
</svg>
